fs/sticker_12_filled.svg

<svg viewBox="0 0 12 12" fill="none" xmlns="http://www.w3.org/2000/svg" height="1em" width="1em">
  <path d="M3 1H9C10.1046 1 11 1.89543 11 3L11 6C11 6 11 6 11 6H7.99999C7.27533 6 6.64069 6.3854 6.28985 6.96241C6.19934 6.99276 6.10174 7.01031 5.99575 7.01031C5.67789 7.01031 5.42373 6.8529 5.22839 6.65714C5.13216 6.5607 5.05878 6.46292 5.00983 6.38942C4.98564 6.35309 4.96819 6.32387 4.95759 6.30531C4.95232 6.29607 4.94877 6.28962 4.94702 6.28634C4.82341 6.03962 4.52325 5.93967 4.27638 6.0631C4.02939 6.1866 3.92928 6.48693 4.05277 6.73392L4.05357 6.7355L4.05456 6.73746L4.05713 6.74248L4.06464 6.75679C4.07071 6.76816 4.0789 6.78315 4.08924 6.80125C4.10987 6.83739 4.13927 6.88629 4.17751 6.94371C4.25343 7.05771 4.36729 7.20993 4.52053 7.36349C4.82412 7.66773 5.31784 8.01031 5.99575 8.01031L5.99999 8.01031V11H3C1.89543 11 1 10.1046 1 9V3C1 1.89543 1.89543 1 3 1ZM4.49999 5C4.77613 5 4.99999 4.77614 4.99999 4.5C4.99999 4.22386 4.77613 4 4.49999 4C4.22385 4 3.99999 4.22386 3.99999 4.5C3.99999 4.77614 4.22385 5 4.49999 5ZM7.49999 5C7.77613 5 7.99999 4.77614 7.99999 4.5C7.99999 4.22386 7.77613 4 7.49999 4C7.22385 4 6.99999 4.22386 6.99999 4.5C6.99999 4.77614 7.22385 5 7.49999 5ZM11 7C11 7 11 7 11 7H7.99999C7.4477 7 6.99999 7.44772 6.99999 8V11H7.5C7.63261 11 7.75979 10.9473 7.85355 10.8536L10.8536 7.85355C10.9473 7.75979 11 7.63261 11 7.5L11 7Z" fill="#212121"/>
</svg>

<svg viewBox="0 0 12 12" fill="none" xmlns="http://www.w3.org/2000/svg" height="1em" width="1em">
  <path d="M3 1h6a2 2 0 0 1 2 2v3H8c-.725 0-1.36.385-1.71.962a.918.918 0 0 1-.294.048c-.318 0-.572-.157-.768-.353a1.785 1.785 0 0 1-.281-.37.5.5 0 0 0-.894.447v.002l.002.001.002.005.008.015a1.776 1.776 0 0 0 .113.187c.075.114.19.266.343.42.303.304.797.646 1.475.646H6V11H3a2 2 0 0 1-2-2V3a2 2 0 0 1 2-2Zm1.5 4a.5.5 0 1 0 0-1 .5.5 0 0 0 0 1Zm3 0a.5.5 0 1 0 0-1 .5.5 0 0 0 0 1ZM11 7H8a1 1 0 0 0-1 1v3h.5a.5.5 0 0 0 .354-.146l3-3A.5.5 0 0 0 11 7.5V7Z" fill="#212121"/>
</svg>
